X: 220
T:Farewell to Whalley Range
M:9/8
L:1/8
C:Michael McGoldrick
R:slip jig
D:Michael McGoldrick and John McSherry: At First Light
Z:Devin McCabe
K:F#min
F2c BA~F- F2E|F2c BAc fec|B3 BAB c2A|1~B3 BAB cBA:|2~B3 BAB cef||
!a3 fec fec|B3 BAB cef|a3 baf afe|fec Bce fec|
!a2f fec fec|B3 BAB cef|a3 baf afe|fec fec BAB||
